X:147
T:
M:6/8
L:1/8
R:jig
N:Learned from Kira Ott
Z:Michael Abraham Shulman
K:G
A|:BAG dBG|cAG FGA|BAG DGB|cAF G2A|
B2B BAG|ABc AGA|(3Bcd B cAF|1 AGF G2A:|2 AGF GBd|
|:g3 dBd|cAG FGA|DGB DGB|cAF GBd|
[1 g3 dBd|cAG FGA|d^cd fed|1 cAF GBd:|
[2 B2B BAG|ABc AGA|(3Bcd B cAF|AGF G3||
